ix/book-1_outline.svg

<svg viewBox="0 0 24 24" fill="none" xmlns="http://www.w3.org/2000/svg" height="1em" width="1em">
  <path d="M12 22.08C11.7 22.08 11.4 22.01 11.15 21.87C9.28 20.85 5.99 19.77 3.93 19.5L3.64 19.46C2.33 19.3 1.25 18.07 1.25 16.74V4.66001C1.25 3.87001 1.56 3.15001 2.13 2.63001C2.7 2.11001 3.44 1.86001 4.22 1.93001C6.42 2.10001 9.74 3.20001 11.62 4.38001L11.86 4.52001C11.93 4.56001 12.08 4.56001 12.14 4.53001L12.3 4.43001C14.18 3.25001 17.5 2.13001 19.71 1.94001C19.73 1.94001 19.81 1.94001 19.83 1.94001C20.56 1.87001 21.31 2.13001 21.87 2.65001C22.44 3.17001 22.75 3.89001 22.75 4.68001V16.75C22.75 18.09 21.67 19.31 20.35 19.47L20.02 19.51C17.96 19.78 14.66 20.87 12.83 21.88C12.59 22.02 12.3 22.08 12 22.08ZM3.98 3.42001C3.66 3.42001 3.37 3.53001 3.14 3.74001C2.89 3.97001 2.75 4.30001 2.75 4.66001V16.74C2.75 17.33 3.26 17.9 3.83 17.98L4.13 18.02C6.38 18.32 9.83 19.45 11.83 20.54C11.92 20.58 12.05 20.59 12.1 20.57C14.1 19.46 17.57 18.32 19.83 18.02L20.17 17.98C20.74 17.91 21.25 17.33 21.25 16.74V4.67001C21.25 4.30001 21.11 3.98001 20.86 3.74001C20.6 3.51001 20.27 3.40001 19.9 3.42001C19.88 3.42001 19.8 3.42001 19.78 3.42001C17.87 3.59001 14.79 4.62001 13.11 5.67001L12.95 5.78001C12.4 6.12001 11.62 6.12001 11.09 5.79001L10.85 5.65001C9.14 4.60001 6.06 3.58001 4.1 3.42001C4.06 3.42001 4.02 3.42001 3.98 3.42001Z" fill="#292D32"/>
  <path d="M12 21.24C11.59 21.24 11.25 20.9 11.25 20.49V5.48999C11.25 5.07999 11.59 4.73999 12 4.73999C12.41 4.73999 12.75 5.07999 12.75 5.48999V20.49C12.75 20.91 12.41 21.24 12 21.24Z" fill="#292D32"/>
  <path d="M7.75 9.23999H5.5C5.09 9.23999 4.75 8.89999 4.75 8.48999C4.75 8.07999 5.09 7.73999 5.5 7.73999H7.75C8.16 7.73999 8.5 8.07999 8.5 8.48999C8.5 8.89999 8.16 9.23999 7.75 9.23999Z" fill="#292D32"/>
  <path d="M8.5 12.24H5.5C5.09 12.24 4.75 11.9 4.75 11.49C4.75 11.08 5.09 10.74 5.5 10.74H8.5C8.91 10.74 9.25 11.08 9.25 11.49C9.25 11.9 8.91 12.24 8.5 12.24Z" fill="#292D32"/>
</svg>

<svg viewBox="0 0 24 24" fill="none" xmlns="http://www.w3.org/2000/svg" height="1em" width="1em">
  <path d="M12 22.08c-.3 0-.6-.07-.85-.21-1.87-1.02-5.16-2.1-7.22-2.37l-.29-.04c-1.31-.16-2.39-1.39-2.39-2.72V4.66c0-.79.31-1.51.88-2.03.57-.52 1.31-.77 2.09-.7 2.2.17 5.52 1.27 7.4 2.45l.24.14c.07.04.22.04.28.01l.16-.1c1.88-1.18 5.2-2.3 7.41-2.49h.12c.73-.07 1.48.19 2.04.71.57.52.88 1.24.88 2.03v12.07c0 1.34-1.08 2.56-2.4 2.72l-.33.04c-2.06.27-5.36 1.36-7.19 2.37-.24.14-.53.2-.83.2ZM3.98 3.42c-.32 0-.61.11-.84.32-.25.23-.39.56-.39.92v12.08c0 .59.51 1.16 1.08 1.24l.3.04c2.25.3 5.7 1.43 7.7 2.52.09.04.22.05.27.03 2-1.11 5.47-2.25 7.73-2.55l.34-.04c.57-.07 1.08-.65 1.08-1.24V4.67c0-.37-.14-.69-.39-.93-.26-.23-.59-.34-.96-.32h-.12c-1.91.17-4.99 1.2-6.67 2.25l-.16.11c-.55.34-1.33.34-1.86.01l-.24-.14C9.14 4.6 6.06 3.58 4.1 3.42h-.12Z" fill="#292D32"/>
  <path d="M12 21.24c-.41 0-.75-.34-.75-.75v-15c0-.41.34-.75.75-.75s.75.34.75.75v15c0 .42-.34.75-.75.75Zm-4.25-12H5.5c-.41 0-.75-.34-.75-.75s.34-.75.75-.75h2.25c.41 0 .75.34.75.75s-.34.75-.75.75Zm.75 3h-3c-.41 0-.75-.34-.75-.75s.34-.75.75-.75h3c.41 0 .75.34.75.75s-.34.75-.75.75Z" fill="#292D32"/>
</svg>
